X: 2
%%etbk:tnset id:1,pos:2,rep:3x,ant:
%%etbk:wsite http://www.thesession.org/tunes/display/1318
%%etbk:video src:ytube,cde:BEE8JBBcpUw,desc:
%%etbk:pldat 2016-07-15T13:50,2016-05-25T15:06,2016-03-14T17:58,2016-02-10T17:44,2015-11-24T18:28,2015-10-13T17:50,2015-05-28T18:45,2015-05-15T15:39,2015-03-23T18:12,2015-01-18T10:51,2015-01-08T19:13,2014-12-31T14:43,2014-12-11T18:07,2014-09-22T18:08,2014-09-16T18:08,2014-09-11T18:10,2014-05-14T15:22,2014-05-04T10:38,2014-04-12T15:59,2014-03-25T15:41,2014-02-15T15:29,2013-11-17T14:52,2013-11-03T14:52,2013-10-05T14:41,2013-08-28T15:21,2013-05-21T15:26,2013-05-10T16:22,2013-05-01T17:06
T: Lough Mountain
Z: Piano Box Version by Martin Fleischmann
H: Created 2013-02-19 /  Last Modified 2013-08-28
M: 4/4
L: 1/8
R: Reel
K: Edor
|: "em"!5!B3!1!E {A}!2!F!1!E!2!F!4!A | !2!B2!5!e!3!c !4!d!2!B!1!A!2!F | "D"!4!A3!3!G !2!F!1!D!2!F!3!A | !5!d!3!f!2!e!1!d !2!B!1!A!2!F!4!A |
"em"!5!B2BE FEF!4!A | !2!Bdc!5!e dB!1!A!2!F | "D"!1!A!2!B!3!d!4!e !5!f!1!A!3!d!4!e | !4!e!3!d!2!B!1!A "em"!2!B!1!E !3!(3E!2!E!1!E:|
|: "em"!5!e2!3!ed !1!B!1!A!1!B!2!d | !3!e!5!g!4!f!2!d ed!1!B!2!c | "D"!3!d{e}dd!2!B !1!AA!2!F!1!A | !3!d!5!fed !2!B!1!A (3!2!B!3!c!4!d |
"em"!5!e2!3!ed !1!B!1!A!1!B!2!d | !3!e!5!g!4!f!2!d ed!1!B!2!c | "D"!3!d{e}ddc d2!5!fe|!3!d!2!B!1!A!2!F "em"!5!B!1!EE2:|


